_files/assets/icon-linkedin.svg

<?xml version="1.0" encoding="UTF-8" standalone="no"?>
<svg width="14px" height="14px" viewBox="0 0 14 14" version="1.1" xmlns="http://www.w3.org/2000/svg" xmlns:xlink="http://www.w3.org/1999/xlink">
    <!-- Generator: Sketch 45.1 (43504) - http://www.bohemiancoding.com/sketch -->
    <title>linkedin</title>
    <desc>Created with Sketch.</desc>
    <defs></defs>
    <g id="Web" stroke="none" stroke-width="1" fill="none" fill-rule="evenodd">
        <g id="Post" transform="translate(-1228.000000, -660.000000)" fill-rule="nonzero" fill="#FFFFFF">
            <g id="Group-10" transform="translate(1220.000000, 652.000000)">
                <g id="linkedin" transform="translate(8.000000, 8.000000)">
                    <circle id="Oval" cx="1.75" cy="1.75" r="1.75"></circle>
                    <path d="M3.20833333,4.66666667 L0.291666667,4.66666667 C0.130666667,4.66666667 0,4.79733333 0,4.95833333 L0,13.7083333 C0,13.8693333 0.130666667,14 0.291666667,14 L3.20833333,14 C3.36933333,14 3.5,13.8693333 3.5,13.7083333 L3.5,4.95833333 C3.5,4.79733333 3.36933333,4.66666667 3.20833333,4.66666667 Z" id="Shape"></path>
                    <path d="M11.89825,4.26475 C10.6516667,3.83775 9.09241667,4.21283333 8.15733333,4.88541667 C8.12525,4.76 8.01091667,4.66666667 7.875,4.66666667 L4.95833333,4.66666667 C4.79733333,4.66666667 4.66666667,4.79733333 4.66666667,4.95833333 L4.66666667,13.7083333 C4.66666667,13.8693333 4.79733333,14 4.95833333,14 L7.875,14 C8.036,14 8.16666667,13.8693333 8.16666667,13.7083333 L8.16666667,7.42 C8.638,7.014 9.24525,6.8845 9.74225,7.09566667 C10.2240833,7.29925 10.5,7.79625 10.5,8.45833333 L10.5,13.7083333 C10.5,13.8693333 10.6306667,14 10.7916667,14 L13.7083333,14 C13.8693333,14 14,13.8693333 14,13.7083333 L14,7.87091667 C13.96675,5.474 12.8391667,4.58675 11.89825,4.26475 Z" id="Shape"></path>
                </g>
            </g>
        </g>
    </g>
</svg>

<svg xmlns="http://www.w3.org/2000/svg" width="14" height="14">
  <g fill="#FFF">
    <circle cx="1.75" cy="1.75" r="1.75"/>
    <path d="M3.208 4.667H.292c-.16 0-.292.13-.292.29v8.75c0 .162.13.293.292.293h2.916c.16 0 .292-.13.292-.292v-8.75c0-.16-.13-.29-.292-.29zm8.69-.402c-1.246-.427-2.806-.052-3.74.62-.033-.125-.147-.218-.283-.218H4.958c-.16 0-.29.13-.29.29v8.75c0 .162.13.293.29.293h2.917c.16 0 .292-.13.292-.292V7.42c.47-.406 1.078-.535 1.575-.324.482.203.758.7.758 1.362v5.25c0 .16.13.292.292.292h2.916c.16 0 .292-.13.292-.292V7.87c-.033-2.396-1.16-3.283-2.102-3.605z"/>
  </g>
</svg>
